!!!OTL: MIT DEM PFEIL DEM BOGEN
!!!ARE: Europa, Mitteleuropa, Deutschland
!!!SCT: B0595
!!!YEM: Copyright 1995, estate of Helmut Schaffrath.
**kern
*ICvox
*Ivox
*M6/8
*k[b-]
*F:
=1
{4f
8f
4a
8a
=2
4.cc
4.a}
=3
{4b-
8b-
8a
8g
8f
=4
4.g
4.r}
=5
{4g
8a
4b-
8a
=6
4.dd
4.dd}
=7
{4ff
8cc
8b-
8a
8g
=8
4.f
4r}
{16a
16b-
=9
4cc
16a
16b-
4cc
16a
16b-
=10
4.cc
4a}
{8f
=11
4g
8g
8g
8f
8g
=12
4.f
4r}
{16a
16b-
=13
4cc
16a
16b-
4cc
16a
16b-
=14
4.cc
4a}
{8f
=15
4g
8g
8g
8f
8g
=16
4.f
4.r}
==
!!!AGN: Staende -, Jaeger - Lied
!!!ONB: ESAC (Essen Associative Code) Database: BOEHME
!!!AMT: compound duple
!!!AIN: vox
!!!EED: Helmut Schaffrath
!!!EEV: 1.0
*-
